papirus/32x32/apps/airvpn.svg

<svg height="32" viewBox="0 0 32 32.000001" width="32" xmlns="http://www.w3.org/2000/svg"><circle cx="15.999998" cy="15.999994" fill="#006680" r="13.999994"/><path d="m14.349877 10.999996c-2.157363 0-3.906251 1.759775-3.906251 3.930597.003.09915.0101.196772.02094.292795-.177744-.03594-.363579-.06454-.5583188-.08458-2.1573625 0-3.90625 1.759776-3.90625 3.930596 0 2.170821 1.7488875 3.930596 3.90625 3.930596h12.1874998c2.157362 0 3.90625-1.759775 3.90625-3.930596 0-2.17082-1.748888-3.930596-3.90625-3.930596-.430313.0133-.831424.10361-1.198577.255199-.546893-.696988-1.394059-1.144434-2.345124-1.144434-.120896.0067-.237118.01064-.349121.02063-.312226-1.856266-1.917442-3.270009-3.851051-3.270009z" opacity=".2"/><path d="m14.349877 9.999998c-2.157363 0-3.906251 1.759775-3.906251 3.930597.003.09915.0101.196772.02094.292795-.177744-.03594-.363579-.06454-.5583188-.08458-2.1573625 0-3.90625 1.759776-3.90625 3.930596 0 2.170821 1.7488875 3.930596 3.90625 3.930596h12.1874998c2.157362 0 3.90625-1.759775 3.90625-3.930596 0-2.17082-1.748888-3.930596-3.90625-3.930596-.430313.0133-.831424.10361-1.198577.255199-.546893-.696988-1.394059-1.144434-2.345124-1.144434-.120896.0067-.237118.01064-.349121.02063-.312226-1.856266-1.917442-3.270009-3.851051-3.270009z" fill="#fff"/><path d="m16 2a13.999994 13.999994 0 0 0 -14 14 13.999994 13.999994 0 0 0  .0214844.585938 13.999994 13.999994 0 0 1  13.9785156-13.585938 13.999994 13.999994 0 0 1  13.978516 13.414062 13.999994 13.999994 0 0 0  .021484-.414062 13.999994 13.999994 0 0 0 -14-14z" fill="#fff" opacity=".2"/><path d="m29.978516 15.414062a13.999994 13.999994 0 0 1 -13.978516 13.585938 13.999994 13.999994 0 0 1 -13.9785156-13.414062 13.999994 13.999994 0 0 0 -.0214844.414062 13.999994 13.999994 0 0 0  14 14 13.999994 13.999994 0 0 0  14-14 13.999994 13.999994 0 0 0 -.021484-.585938z" opacity=".3"/></svg>

<?xml version="1.0" encoding="UTF-8" standalone="no"?>
<svg
   xmlns:dc="http://purl.org/dc/elements/1.1/"
   xmlns:cc="http://creativecommons.org/ns#"
   xmlns:rdf="http://www.w3.org/1999/02/22-rdf-syntax-ns#"
   xmlns:svg="http://www.w3.org/2000/svg"
   xmlns="http://www.w3.org/2000/svg"
   xmlns:sodipodi="http://sodipodi.sourceforge.net/DTD/sodipodi-0.dtd"
   xmlns:inkscape="http://www.inkscape.org/namespaces/inkscape"
   version="1.1"
   id="svg4261"
   viewBox="0 0 32 32.000001"
   height="32"
   width="32"
   inkscape:version="0.91 r13725"
   sodipodi:docname="airvpn.svg">
  <sodipodi:namedview
     pagecolor="#ffffff"
     bordercolor="#666666"
     borderopacity="1"
     objecttolerance="10"
     gridtolerance="10"
     guidetolerance="10"
     inkscape:pageopacity="0"
     inkscape:pageshadow="2"
     inkscape:window-width="1600"
     inkscape:window-height="849"
     id="namedview13"
     showgrid="false"
     inkscape:zoom="5.71"
     inkscape:cx="-7.6304361"
     inkscape:cy="13.70297"
     inkscape:window-x="0"
     inkscape:window-y="0"
     inkscape:window-maximized="1"
     inkscape:current-layer="svg4261" />
  <defs
     id="defs4263" />
  <metadata
     id="metadata4266">
    <rdf:RDF>
      <cc:Work
         rdf:about="">
        <dc:format>image/svg+xml</dc:format>
        <dc:type
           rdf:resource="http://purl.org/dc/dcmitype/StillImage" />
        <dc:title></dc:title>
      </cc:Work>
    </rdf:RDF>
  </metadata>
  <circle
     style="opacity:1;fill:#006680;fill-opacity:1;stroke:none;stroke-width:0.2;stroke-miterlimit:4;stroke-dasharray:none;stroke-opacity:1"
     id="path4136"
     cx="15.999998"
     cy="15.999994"
     r="13.999994" />
  <path
     style="opacity:0.2;fill:#000000;fill-opacity:1;stroke:none;stroke-width:2;stroke-miterlimit:4;stroke-dasharray:none;stroke-opacity:1"
     d="m 14.349877,10.999996 c -2.157363,0 -3.906251,1.759775 -3.906251,3.930597 0.003,0.09915 0.0101,0.196772 0.02094,0.292795 -0.177744,-0.03594 -0.363579,-0.06454 -0.5583188,-0.08458 -2.1573625,0 -3.90625,1.759776 -3.90625,3.930596 0,2.170821 1.7488875,3.930596 3.90625,3.930596 l 12.1874998,0 c 2.157362,0 3.90625,-1.759775 3.90625,-3.930596 0,-2.17082 -1.748888,-3.930596 -3.90625,-3.930596 -0.430313,0.0133 -0.831424,0.10361 -1.198577,0.255199 -0.546893,-0.696988 -1.394059,-1.144434 -2.345124,-1.144434 -0.120896,0.0067 -0.237118,0.01064 -0.349121,0.02063 -0.312226,-1.856266 -1.917442,-3.270009 -3.851051,-3.270009 z"
     id="path4230"
     inkscape:connector-curvature="0" />
  <path
     inkscape:connector-curvature="0"
     id="path4163"
     d="m 14.349877,9.999998 c -2.157363,0 -3.906251,1.759775 -3.906251,3.930597 0.003,0.09915 0.0101,0.196772 0.02094,0.292795 -0.177744,-0.03594 -0.363579,-0.06454 -0.5583188,-0.08458 -2.1573625,0 -3.90625,1.759776 -3.90625,3.930596 0,2.170821 1.7488875,3.930596 3.90625,3.930596 l 12.1874998,0 c 2.157362,0 3.90625,-1.759775 3.90625,-3.930596 0,-2.17082 -1.748888,-3.930596 -3.90625,-3.930596 -0.430313,0.0133 -0.831424,0.10361 -1.198577,0.255199 -0.546893,-0.696988 -1.394059,-1.144434 -2.345124,-1.144434 -0.120896,0.0067 -0.237118,0.01064 -0.349121,0.02063 -0.312226,-1.856266 -1.917442,-3.270009 -3.851051,-3.270009 z"
     style="opacity:1;fill:#ffffff;fill-opacity:1;stroke:none;stroke-width:2;stroke-miterlimit:4;stroke-dasharray:none;stroke-opacity:1" />
  <path
     style="opacity:0.2;fill:#ffffff;fill-opacity:1;stroke:none;stroke-width:0.2;stroke-miterlimit:4;stroke-dasharray:none;stroke-opacity:1"
     d="M 16 2 A 13.999994 13.999994 0 0 0 2 16 A 13.999994 13.999994 0 0 0 2.0214844 16.585938 A 13.999994 13.999994 0 0 1 16 3 A 13.999994 13.999994 0 0 1 29.978516 16.414062 A 13.999994 13.999994 0 0 0 30 16 A 13.999994 13.999994 0 0 0 16 2 z "
     id="circle4220" />
  <path
     style="opacity:0.3;fill:#000000;fill-opacity:1;stroke:none;stroke-width:0.2;stroke-miterlimit:4;stroke-dasharray:none;stroke-opacity:1"
     d="M 29.978516 15.414062 A 13.999994 13.999994 0 0 1 16 29 A 13.999994 13.999994 0 0 1 2.0214844 15.585938 A 13.999994 13.999994 0 0 0 2 16 A 13.999994 13.999994 0 0 0 16 30 A 13.999994 13.999994 0 0 0 30 16 A 13.999994 13.999994 0 0 0 29.978516 15.414062 z "
     id="circle4225" />
</svg>
